X: 21618
T: Killavil Postman, The
R: barndance
M: 4/4
K: Gmajor
M:2/4
B/c/|dg g> e|d/e/d/c/ B/A/G/E/|DG GA|B2 BG/A/|
Bg g> e|d/e/d/c/ B/A/G|Aa ab|a2 a2|
gb gf/e/|dd/c/ B/A/G/E/|DG GA|B2 B2|
ee/B/ c/B/A|d/e/d/c/ B/A/G/E/|DG GA|G2 G2||
bb/f/ g/f/e|b/c'/b/f/ g/f/e|bb bc'|b2 b2|
aa/f/ g/f/e|aa/f/ g/f/e|aa ab|f2 f2|
bb/f/ g/f/e|b/c'/b/f/ g/f/e/f/|bb bc'|b2 g>a|
bb aa|gg ff|aa/g/ f/g/a/g/|f/g/e/f/ dB/c/|
dg g> e|d/e/d/c/ B/A/G/E/|DG GA|B2 BG/A/|
Bg g> e|d/e/d/c/ B/A/G|Aa ab|a2 a2|
gb gf/e/|dd/c/ B/A/G/E/|DG GA|B2 B2|
ee/B/ c/B/A|d/e/d/c/ B/A/G/E/|DG GA|G3||

